!!!OTL: BEGLUECKT BEGLUECKT WER DIE GELIEBTE FINDET
!!!ARE: Europa, Mitteleuropa, Deutschland
!!!SCT: B0365
!!!YEM: Copyright 1995, estate of Helmut Schaffrath.
**kern
*ICvox
*Ivox
*M4/4
*k[f#c#g#]
*A:
{8e
8f#
8g#
=1
4.a
8b
8.cc#
16b
8a
8g#
=2
8.g#
16f#
4.f#}
{16a
16g#
16b
16a
16g#
16f#
=3
8e
8a
8cc#
8ee
8ee
8dd
8b
8g#
=4
2a
8r}
{8e
8f#
8g#
=5
4.a
8b
8.cc#
16b
8a
8g#
=6
8.g#
16f#
4.f#}
{16a
16g#
16b
16a
16g#
16f#
=7
8e
8a
8cc#
8ee
8ee
8dd
8b
8g#
=8
2a
8r}
{8a
8b
8a
=9
4.g#
8b
8.ee
16dd
8cc#
8b
=10
8.b
16a
4.a}
{16cc#
16b
16dd
16cc#
16b
16a
=11
8g#
8b
8b
8ee
4.ee
8dd
=12
2cc#
8r}
{8e
8f#
8g#
=13
4.a
8b
8.cc#
16b
8a
8g#
=14
8.g#
16f#
4.f#}
{16a
16g#
16b
16a
16g#
16f#
=15
8e
8a
8cc#
8ee
4.ee
8g#
=16
2a
8r}
==
!!!AGN: Liebes - Lied, Liebes - Lust
!!!ONB: ESAC (Essen Associative Code) Database: BOEHME
!!!AMT: simple quadruple
!!!AIN: vox
!!!EED: Helmut Schaffrath
!!!EEV: 1.0
*-
